images/footer/social/twit.svg

<svg width="30" height="30" viewBox="0 0 30 30" fill="none" xmlns="http://www.w3.org/2000/svg">
<g clip-path="url(#clip0)">
<path d="M15.0067 8.26172C10.7478 8.26172 7.31251 11.2676 7.31251 14.9941C7.31251 18.7207 10.7478 21.7266 15.0067 21.7266C19.2656 21.7266 22.7009 18.7207 22.7009 14.9941C22.7009 11.2676 19.2656 8.26172 15.0067 8.26172ZM15.0067 19.3711C12.2545 19.3711 10.0045 17.4082 10.0045 14.9941C10.0045 12.5801 12.2478 10.6172 15.0067 10.6172C17.7656 10.6172 20.0089 12.5801 20.0089 14.9941C20.0089 17.4082 17.7589 19.3711 15.0067 19.3711ZM24.8103 7.98633C24.8103 8.85937 24.0067 9.55664 23.0156 9.55664C22.0179 9.55664 21.221 8.85351 21.221 7.98633C21.221 7.11914 22.0246 6.41601 23.0156 6.41601C24.0067 6.41601 24.8103 7.11914 24.8103 7.98633ZM29.9062 9.58007C29.7924 7.47656 29.2433 5.61328 27.4821 4.07812C25.7277 2.54297 23.5982 2.0625 21.1942 1.95703C18.7165 1.83398 11.2902 1.83398 8.81251 1.95703C6.41519 2.05664 4.28573 2.53711 2.52457 4.07226C0.76341 5.60742 0.220999 7.4707 0.100464 9.57421C-0.0401611 11.7422 -0.0401611 18.2402 0.100464 20.4082C0.214303 22.5117 0.76341 24.375 2.52457 25.9101C4.28573 27.4453 6.4085 27.9258 8.81251 28.0312C11.2902 28.1543 18.7165 28.1543 21.1942 28.0312C23.5982 27.9316 25.7277 27.4512 27.4821 25.9101C29.2366 24.375 29.7857 22.5117 29.9062 20.4082C30.0469 18.2402 30.0469 11.748 29.9062 9.58007ZM26.7054 22.7344C26.183 23.8828 25.1719 24.7676 23.8527 25.2305C21.8772 25.916 17.1897 25.7578 15.0067 25.7578C12.8237 25.7578 8.12948 25.9101 6.16073 25.2305C4.84823 24.7734 3.83707 23.8887 3.30805 22.7344C2.52457 21.0058 2.70537 16.9043 2.70537 14.9941C2.70537 13.084 2.53127 8.97656 3.30805 7.2539C3.83037 6.10547 4.84153 5.2207 6.16073 4.75781C8.13617 4.07226 12.8237 4.23047 15.0067 4.23047C17.1897 4.23047 21.8839 4.07812 23.8527 4.75781C25.1652 5.21484 26.1763 6.09961 26.7054 7.2539C27.4888 8.98242 27.308 13.084 27.308 14.9941C27.308 16.9043 27.4888 21.0117 26.7054 22.7344Z" fill="black"/>
</g>
<defs>
<clipPath id="clip0">
<rect width="30" height="30" fill="white"/>
</clipPath>
</defs>
</svg>

<svg width="30" height="30" fill="none" xmlns="http://www.w3.org/2000/svg"><g clip-path="url(#clip0)"><path d="M15.007 8.262c-4.26 0-7.694 3.006-7.694 6.732 0 3.727 3.435 6.733 7.694 6.733S22.7 18.72 22.7 14.994c0-3.726-3.435-6.732-7.694-6.732zm0 11.11c-2.752 0-5.002-1.964-5.002-4.378s2.243-4.377 5.002-4.377 5.002 1.963 5.002 4.377c0 2.414-2.25 4.377-5.002 4.377zM24.81 7.985c0 .873-.803 1.57-1.794 1.57-.998 0-1.795-.702-1.795-1.57 0-.867.804-1.57 1.795-1.57.99 0 1.794.703 1.794 1.57zm5.096 1.594c-.114-2.103-.663-3.967-2.424-5.502-1.754-1.535-3.884-2.016-6.288-2.121-2.477-.123-9.904-.123-12.381 0-2.398.1-4.527.58-6.288 2.115C.763 5.607.22 7.471.1 9.574c-.14 2.168-.14 8.666 0 10.834.114 2.104.663 3.967 2.425 5.502 1.76 1.535 3.884 2.016 6.288 2.121 2.477.123 9.903.123 12.381 0 2.404-.1 4.534-.58 6.288-2.12 1.755-1.536 2.304-3.4 2.424-5.503.14-2.168.14-8.66 0-10.828zm-3.2 13.154c-.523 1.149-1.534 2.034-2.853 2.496-1.976.686-6.663.528-8.846.528s-6.878.152-8.846-.527c-1.313-.458-2.324-1.342-2.853-2.497-.783-1.728-.603-5.83-.603-7.74 0-1.91-.174-6.017.603-7.74.522-1.149 1.534-2.033 2.853-2.496 1.975-.686 6.663-.528 8.846-.528s6.877-.152 8.846.528c1.312.457 2.323 1.342 2.852 2.496.784 1.728.603 5.83.603 7.74 0 1.91.18 6.018-.603 7.74z" fill="#000"/></g><defs><clipPath id="clip0"><path fill="#fff" d="M0 0h30v30H0z"/></clipPath></defs></svg>
